!!!!SEGMENT: pl-cz--ii-21--003_volckmer-augustin--quid-divinus-amor-possit-quid-divinus-amor-possit.krn
!!!cenid: 17xx:1215
!!!COM: Volckmer, Augustin
!!!COM-rismID:
!!!CDT: 1755-~1820
!!!CNT:
!!!OPR: Quid divinus amor possit
!!!OTL: Quid divinus amor possit
!!!OMV: 003
!!!PDT:
!!!AGN:
!!!SMS-siglum: PL-CZ
!!!SMS-shelfmark: II-21
!!!SMS-shelfwork: 001-003 M
!!!SMS-variant:
!!!SMS-altvar:
!!!NIFC-rismSourceID: 300001400
!!!NIFC-islandoraID: pl-cz:32887
!!!URL-pdf-islandora: https://repozytorium.nifc.pl/islandora/object/pl-cz%3A32887/datastream/PDF/view
!!!URL-scan:
!!!ONB-nifc: UWAGA: części: 1. Quid divinus amor possit, 2. O supreme rex, 3. Quid divinus amor possit
!!!AIN: 1 cbass 2 cor 1 fagot 2 oboe 2 soprn 1 viola 2 violn
!!!key: E-
**kern	**dynam	**kern	**dynam	**kern	**dynam	**kern	**dynam	**kern	**text	**dynam	**kern	**text	**dynam	**kern	**dynam	**kern	**dynam	**kern	**dynam	**kern	**dynam	**kern	**dynam
*group4	*	*group4	*	*group4	*	*group4	*	*group3	*	*	*group3	*	*	*group2	*	*group2	*	*group1	*	*group1	*	*group1	*
*part11	*part11	*part10	*part10	*part9	*part9	*part8	*part8	*part7	*part7	*part7	*part6	*part6	*part6	*part5	*part5	*part4	*part4	*part3	*part3	*part2	*part2	*part1	*part1
*staff11	*	*staff10	*	*staff9	*	*staff8	*	*staff7	*staff7	*	*staff6	*staff6	*	*staff5	*	*staff4	*	*staff3	*	*staff2	*	*staff1	*
*I"Baſſo.	*	*I"Viola obgl.	*	*I"Violino Secundo.	*	*I"Violino Primo.	*	*I"Canto. II.te	*	*	*I"Canto. I.te	*	*	*I"Corno Secunda. in Dis	*	*I"Corno Prima in Dis	*	*I"Fagotto. obl.	*	*I"Hautbois Secunda.	*	*I"Hautbois Prima.	*
*I'cb	*	*I'vla obl	*	*I'vl 2	*	*I'vl 1	*	*I'S 2	*	*	*I'S 1	*	*	*I'cor 2 in Es	*	*I'cor 1 in Es	*	*I'fag obl	*	*I'ob 2	*	*I'ob 1	*
*Icbass	*	*Iviola	*	*Ivioln	*	*Ivioln	*	*Isoprn	*	*	*Isoprn	*	*	*Icor	*	*Icor	*	*Ifagot	*	*Ioboe	*	*Ioboe	*
*ICstr	*	*ICstr	*	*ICstr	*	*ICstr	*	*ICvox	*	*	*ICvox	*	*	*ICbras	*	*ICbrass	*	*ICww	*	*ICww	*	*ICww	*
*clefF4	*	*clefC3	*	*clefG2	*	*clefG2	*	*clefC1	*	*	*clefC1	*	*	*clefG2	*	*clefG2	*	*clefF4	*	*clefG2	*	*clefG2	*
*ITrd0c0	*	*	*	*	*	*	*	*	*	*	*	*	*	*ITrd5c9	*	*ITrd5c9	*	*	*	*	*	*	*
*k[b-e-a-]	*	*k[b-e-a-]	*	*k[b-e-a-]	*	*k[b-e-a-]	*	*k[b-e-a-]	*	*	*k[b-e-a-]	*	*	*k[b-e-a-]	*	*k[b-e-a-]	*	*k[b-e-a-]	*	*k[b-e-a-]	*	*k[b-e-a-]	*
*E-:	*	*E-:	*	*E-:	*	*E-:	*	*E-:	*	*	*E-:	*	*	*E-:	*	*E-:	*	*E-:	*	*E-:	*	*E-:	*
*M3/4	*	*M3/4	*	*M3/4	*	*M3/4	*	*M3/4	*	*	*M3/4	*	*	*M3/4	*	*M3/4	*	*M3/4	*	*M3/4	*	*M3/4	*
=1	=1	=1	=1	=1	=1	=1	=1	=1	=1	=1	=1	=1	=1	=1	=1	=1	=1	=1	=1	=1	=1	=1	=1
!	!	!	!	!	!	!	!	!	!	!	!	!	!	!	!	!	!	!LO:TX:b:t=Solo:color=red	!	!	!	!	!
!LO:TX:a:t=Largo	!LO:DY:color=red	!LO:TX:a:t=Largo	!LO:DY:color=red	!LO:TX:b:t=Largo	!LO:DY:a:t=pia:color=red	!LO:TX:a:t=Largo	!LO:DY:color=red	!LO:TX:a:t=Largo:color=red	!	!LO:DY:a:color=red	!LO:TX:a:t=6	!	!	!LO:TX:a:t=adagio	!LO:DY:a:t=pp&colon;:color=red	!LO:TX:a:B:t=Largo	!LO:DY:a:t=pp&colon;:color=red	!LO:TX:a:t=Largo	!LO:DY:color=red	!LO:TX:a:B:t=Largo	!	!LO:TX:a:t=Largo	!LO:DY:color=red
4E-\	p	4e-\	p	4g/	p	4b-\	p	4b-\	Quid	p	0.r	.	.	4E-/	pp	4e-\	pp	4B-\	p	4gg\	p	4bb-\	p
*	*	*	*	*	*	*	*	*	*ij	*	*	*	*	*	*	*	*	*	*	*	*	*	*
4E-\	.	4e-\	.	4g/	.	4b-\	.	4b-\	Quid	.	.	.	.	4E-/	.	4e-\	.	4B-\	.	4gg\	.	4bb-\	.
*	*	*	*	*	*	*	*	*	*Xij	*	*	*	*	*	*	*	*	*	*	*	*	*	*
4E-\	.	4e-\	.	4g/	.	4b-\	.	4b-\	di-	.	.	.	.	4E-/	.	4e-\	.	4B-\	.	4gg\	.	4bb-\	.
!	!	!	!	!	!	!	!	!	!	!	!	!	!	!LO:LB:g=original	!	!	!	!	!	!	!	!	!
=2	=2	=2	=2	=2	=2	=2	=2	=2	=2	=2	=2	=2	=2	=2	=2	=2	=2	=2	=2	=2	=2	=2	=2
4E-\	.	4e-\	.	(8g/L	.	(8bn\L	.	8bn\L	-vi-	.	.	.	.	4E-/	.	4e-\	.	(8Bn\L	.	(8gg\L	.	(8bbn\L	.
.	.	.	.	8a-/J	.	8cc\J)	.	8cc\J	.	.	.	.	.	.	.	.	.	8c\J)	.	8aa-\J)	.	8ccc\J)	.
4E-\	.	4e-\	.	4a-/)	.	4cc\	.	4cc\	-nus	.	.	.	.	4r	.	4r	.	4c\	.	4aa-\	.	4ccc\	.
4E-\	.	4e-\	.	8r	.	8r	.	8r	.	.	.	.	.	4r	.	4r	.	8r	.	8r	.	8r	.
!	!	!	!	!	!	!	!LO:DY:rj:color=red	!	!	!LO:DY:a:color=red	!	!	!	!	!	!	!	!	!	!	!	!	!
.	.	.	.	(16f/LL	.	(16a-/LL	f	16a-\LL	di-	f	.	.	.	.	.	.	.	16A-\LL	.	(16ff\LL	.	(16aa-\LL	.
.	.	.	.	16e-/JJ)	.	16g/JJ)	.	16g\JJ	.	.	.	.	.	.	.	.	.	16G\JJ	.	16ee-\JJ)	.	16gg\JJ)	.
!	!	!	!	!	!	!	!	!LO:PB:g=original	!	!	!	!	!	!	!	!	!	!	!	!	!	!	!
=3	=3	=3	=3	=3	=3	=3	=3	=3	=3	=3	=3	=3	=3	=3	=3	=3	=3	=3	=3	=3	=3	=3	=3
4BB-/	.	4b-\	.	8d/	.	8f/	.	8f/	-vi-	.	.	.	.	8B-/	.	8f\	.	8F\	.	8dd\	.	8ff\	.
.	.	.	.	4d/	.	4f/	.	4f/	-nus	.	.	.	.	4B-/	.	4f\	.	4F\	.	4dd\	.	4ff\	.
4BB-/	.	4b-\	.	.	.	.	.	.	.	.	.	.	.	.	.	.	.	.	.	.	.	.	.
.	.	.	.	(8d/L	.	(8f/L	.	8f/L	a-	.	.	.	.	8B-/	.	(8f\L	.	8F\L	.	8dd\L	.	(8ff\L	.
4BB-/	.	4b-\	.	8e-/	.	8g/	.	8g/J	.	.	.	.	.	8e-/L	.	8g\	.	8G\	.	8ee-\	.	8gg\	.
.	.	.	.	8f/J)	.	8a-/J)	.	8a-/	-mor	.	.	.	.	8f/J	.	8a-\J)	.	8A-\J	.	8ff\J	.	8aa-\J)	.
!	!	!	!	!	!	!LO:LB:g=original	!	!	!	!	!	!	!	!	!	!	!	!LO:LB:g=original	!	!	!	!	!
=4	=4	=4	=4	=4	=4	=4	=4	=4	=4	=4	=4	=4	=4	=4	=4	=4	=4	=4	=4	=4	=4	=4	=4
4E-\	.	4b-\	.	8.g/L	.	8.b-X\L	.	8.b-X\L	pos-	.	.	.	.	8.g\L	.	8.b-\L	.	8.B-X\L	.	8.gg\L	.	8.bb-X\L	.
.	.	.	.	16e-/Jk	.	16g\Jk	.	16g\Jk	.	.	.	.	.	16e-\Jk	.	16g\Jk	.	16G\Jk	.	16ee-\Jk	.	16ff\Jk	.
4r	.	4r	.	8g/	.	8b-\	.	8b-\	-ſit	.	.	.	.	8g\	.	8b-\	.	8B-\	.	8gg\	.	8bb-\	.
.	.	.	.	8r	.	8r	.	8r	.	.	.	.	.	8r	.	8r	.	8r	.	8r	.	8r	.
4G\	.	8r	.	8r	.	8r	.	8r	.	.	.	.	.	8r	.	8r	.	8r	.	8r	.	8r	.
!	!	!	!	!LO:LB:g=original	!	!	!LO:DY:color=red	!	!	!LO:DY:a:color=red	!	!	!	!	!	!	!	!	!	!	!	!	!
.	.	8G/	.	16g/LL	.	16b-/LL	p	16b-\LL	di-	p	.	.	.	16g\LL	.	16b-\LL	.	16B-\LL	.	8b-/	.	16bb-\LL	.
.	.	.	.	16b-/JJ	.	16g/JJ	.	16g\JJ	-li-	.	.	.	.	16e-\JJ	.	16g\JJ	.	16G\JJ	.	.	.	16gg\JJ	.
=5	=5	=5	=5	=5	=5	=5	=5	=5	=5	=5	=5	=5	=5	=5	=5	=5	=5	=5	=5	=5	=5	=5	=5
!	!	!	!	!	!	!	!LO:DY:a:rj	!	!	!	!	!	!	!	!	!	!	!	!	!	!	!	!
4A-\	.	4A-/	.	4cc\	.	(16g/LL	f	16g/LL	-gen-	.	1.r	.	.	4f\	.	4a-\	.	16G\LL	.	4a-/	.	4ff\	.
.	.	.	.	.	.	16f/)	.	16f/	.	.	.	.	.	.	.	.	.	16F\	.	.	.	.	.
.	.	.	.	.	.	(16a-/	.	16a-/	.	.	.	.	.	.	.	.	.	16A-\	.	.	.	.	.
.	.	.	.	.	.	16f/JJ)	.	16f/JJ	.	.	.	.	.	.	.	.	.	16F\JJ	.	.	.	.	.
4B-\	.	4G/	.	4b-\	.	(16f/LL	.	16f/LL	.	.	.	.	.	4e-\	.	4g\	.	16F\LL	.	4g/	.	4ee-\	.
.	.	.	.	.	.	16e-/	.	16e-/JJ	.	.	.	.	.	.	.	.	.	16E-\	.	.	.	.	.
.	.	.	.	.	.	16g/	.	16g/LL	-tes	.	.	.	.	.	.	.	.	16G\	.	.	.	.	.
.	.	.	.	.	.	16e-/JJ)	.	16e-/JJ	.	.	.	.	.	.	.	.	.	16E-\JJ	.	.	.	.	.
4BB-/	.	4F/	.	4b-\	.	16e-/LL	.	16e-/LL	no-	.	.	.	.	4B-/	.	4f\	.	16E-\LL	.	4f/	.	4dd\	.
.	.	.	.	.	.	16d/	.	16d/JJ	.	.	.	.	.	.	.	.	.	16D\	.	.	.	.	.
.	.	.	.	.	.	16f/	.	16f/LL	-ve-	.	.	.	.	.	.	.	.	16F\	.	.	.	.	.
.	.	.	.	.	.	16d/JJ	.	16d/JJ	.	.	.	.	.	.	.	.	.	16D\JJ	.	.	.	.	.
=6	=6	=6	=6	=6	=6	=6	=6	=6	=6	=6	=6	=6	=6	=6	=6	=6	=6	=6	=6	=6	=6	=6	=6
4E-\	.	4G/	.	4b-\	.	16e-/LL	.	4e-/	-rint	.	.	.	.	4G/	.	4e-\	.	4E-\	.	4g/	.	4ee-\	.
.	.	.	.	.	.	16B-/	.	.	.	.	.	.	.	.	.	.	.	.	.	.	.	.	.
.	.	.	.	.	.	16c/	.	.	.	.	.	.	.	.	.	.	.	.	.	.	.	.	.
.	.	.	.	.	.	16d/JJ	.	.	.	.	.	.	.	.	.	.	.	.	.	.	.	.	.
4r	.	4r	.	4r	.	16e-/LL	.	4r	.	.	.	.	.	4r	.	4r	.	4r	.	4r	.	4r	.
.	.	.	.	.	.	16g/	.	.	.	.	.	.	.	.	.	.	.	.	.	.	.	.	.
.	.	.	.	.	.	16f/	.	.	.	.	.	.	.	.	.	.	.	.	.	.	.	.	.
.	.	.	.	.	.	16a-/JJ	.	.	.	.	.	.	.	.	.	.	.	.	.	.	.	.	.
4r	.	4r	.	4r	.	16g/LL	.	4r	.	.	.	.	.	4r	.	4r	.	4r	.	4r	.	4r	.
.	.	.	.	.	.	16b-/	.	.	.	.	.	.	.	.	.	.	.	.	.	.	.	.	.
.	.	.	.	.	.	16a-/	.	.	.	.	.	.	.	.	.	.	.	.	.	.	.	.	.
.	.	.	.	.	.	16cc/JJ	.	.	.	.	.	.	.	.	.	.	.	.	.	.	.	.	.
!	!	!	!	!	!	!	!	!LO:LB:g=original	!	!	!	!	!	!	!	!	!	!	!	!	!	!	!
=7	=7	=7	=7	=7	=7	=7	=7	=7	=7	=7	=7	=7	=7	=7	=7	=7	=7	=7	=7	=7	=7	=7	=7
!	!	!	!	!	!	!	!LO:DY:color=red	!LO:TX:a:t=6	!	!	!LO:TX:a:B:t=Largo	!	!LO:DY:a:color=red	!LO:TX:a:t=5:color=grey	!	!LO:TX:a:t=5	!	!	!LO:DY:color=red	!LO:TX:a:t=6	!	!LO:TX:a:t=6	!
4E-\	.	4e-\	.	4g/	.	4b-\	p	0.r	.	.	4b-\	quid	p	0.r	.	0.r	.	4E-\	p	0.r	.	0.r	.
*	*	*	*	*	*	*	*	*	*	*	*	*ij	*	*	*	*	*	*	*	*	*	*	*
4E-\	.	4e-\	.	4g/	.	4b-\	.	.	.	.	4b-\	quid	.	.	.	.	.	4E-\	.	.	.	.	.
*	*	*	*	*	*	*	*	*	*	*	*	*Xij	*	*	*	*	*	*	*	*	*	*	*
4E-\	.	4e-\	.	4g/	.	4b-\	.	.	.	.	4b-\	dul-	.	.	.	.	.	4E-\	.	.	.	.	.
=8	=8	=8	=8	=8	=8	=8	=8	=8	=8	=8	=8	=8	=8	=8	=8	=8	=8	=8	=8	=8	=8	=8	=8
4E-\	.	4e-\	.	(8g/L	.	(8bn\L	.	.	.	.	8bn\L	-co-	.	.	.	.	.	4E-\	.	.	.	.	.
.	.	.	.	8a-/J	.	8cc\J)	.	.	.	.	8cc\J	.	.	.	.	.	.	.	.	.	.	.	.
4E-\	.	4e-\	.	4a-/)	.	4cc\	.	.	.	.	4cc\	-ris	.	.	.	.	.	4E-\	.	.	.	.	.
4E-\	.	4e-\	.	8r	.	8r	.	.	.	.	8r	.	.	.	.	.	.	4E-\	.	.	.	.	.
!	!	!	!	!	!	!	!	!	!	!	!	!	!LO:DY:a:color=red	!	!	!	!	!	!	!	!	!	!
.	.	.	.	16f/LL	.	(16a-/LL	.	.	.	.	16a-\LL	dul-	f	.	.	.	.	.	.	.	.	.	.
.	.	.	.	16e-/JJ	.	16g/JJ)	.	.	.	.	16g\JJ	.	.	.	.	.	.	.	.	.	.	.	.
!LO:LB:g=original	!	!LO:LB:g=original	!	!	!	!LO:LB:g=original	!	!	!	!	!	!	!	!	!	!	!	!	!	!	!	!	!
=9	=9	=9	=9	=9	=9	=9	=9	=9	=9	=9	=9	=9	=9	=9	=9	=9	=9	=9	=9	=9	=9	=9	=9
4BB-/	.	4b-\	.	8d/	.	8f/	.	.	.	.	8f/	-co-	.	.	.	.	.	4BB-/	.	.	.	.	.
.	.	.	.	4d/	.	4f/	.	.	.	.	4f/	-ris	.	.	.	.	.	.	.	.	.	.	.
4BB-/	.	4b-\	.	.	.	.	.	.	.	.	.	.	.	.	.	.	.	4BB-/	.	.	.	.	.
.	.	.	.	8d/L	.	(8f/L	.	.	.	.	8f/L	in	.	.	.	.	.	.	.	.	.	.	.
4BB-/	.	4b-\	.	8e-/	.	8g/	.	.	.	.	8g/J	.	.	.	.	.	.	4BB-/	.	.	.	.	.
.	.	.	.	8f/J	.	8a-/J)	.	.	.	.	8a-/	de-	.	.	.	.	.	.	.	.	.	.	.
=10	=10	=10	=10	=10	=10	=10	=10	=10	=10	=10	=10	=10	=10	=10	=10	=10	=10	=10	=10	=10	=10	=10	=10
4E-\	.	4b-\	.	8.g/L	.	8.b-X/L	.	.	.	.	8.b-X\L	-tra-	.	.	.	.	.	4E-\	.	.	.	.	.
.	.	.	.	16e-/Jk	.	16g/Jk	.	.	.	.	16g\Jk	.	.	.	.	.	.	.	.	.	.	.	.
4r	.	4r	.	8g/	.	8b-/	.	.	.	.	8b-\	-hant	.	.	.	.	.	4r	.	.	.	.	.
.	.	.	.	8r	.	8r	.	.	.	.	8r	.	.	.	.	.	.	.	.	.	.	.	.
4G\	.	8r	.	8r	.	8r	.	.	.	.	8r	.	.	.	.	.	.	4GG/	.	.	.	.	.
!	!	!	!	!	!	!	!	!	!	!	!	!	!LO:DY:a:color=red	!	!	!	!	!	!	!	!	!	!
.	.	8G/	.	16e-/LL	.	(16b-/LL	.	.	.	.	16b-\	a-	p	.	.	.	.	.	.	.	.	.	.
.	.	.	.	16g/JJ	.	16g/JJ)	.	.	.	.	16g\	-da-	.	.	.	.	.	.	.	.	.	.	.
!	!	!	!	!	!	!	!	!	!	!	!LO:LB:g=original	!	!	!	!	!	!	!	!	!	!	!	!
=11	=11	=11	=11	=11	=11	=11	=11	=11	=11	=11	=11	=11	=11	=11	=11	=11	=11	=11	=11	=11	=11	=11	=11
4A-\	.	4A-/	.	4a-/	.	(16g/LL	.	1.r	.	.	16g/LL	-man-	.	2.r	.	2.r	.	4AA-/	.	1.r	.	1.r	.
.	.	.	.	.	.	16f/	.	.	.	.	16f/	.	.	.	.	.	.	.	.	.	.	.	.
.	.	.	.	.	.	16a-/	.	.	.	.	16a-/	.	.	.	.	.	.	.	.	.	.	.	.
.	.	.	.	.	.	16f/JJ)	.	.	.	.	16f/JJ	.	.	.	.	.	.	.	.	.	.	.	.
4B-\	.	4G/	.	4g/	.	16f/LL	.	.	.	.	16f/LL	.	.	.	.	.	.	4BB-/	.	.	.	.	.
.	.	.	.	.	.	16e-/	.	.	.	.	16e-/JJ	.	.	.	.	.	.	.	.	.	.	.	.
.	.	.	.	.	.	16g/	.	.	.	.	16g/LL	-tes	.	.	.	.	.	.	.	.	.	.	.
.	.	.	.	.	.	16e-/JJ	.	.	.	.	16e-/JJ	.	.	.	.	.	.	.	.	.	.	.	.
4BB-/	.	4F/	.	4f/	.	16e-/LL	.	.	.	.	16e-/LL	di-	.	.	.	.	.	4BBB-/	.	.	.	.	.
.	.	.	.	.	.	16d/	.	.	.	.	16d/JJ	.	.	.	.	.	.	.	.	.	.	.	.
.	.	.	.	.	.	16f/	.	.	.	.	16f/LL	-xe-	.	.	.	.	.	.	.	.	.	.	.
.	.	.	.	.	.	16d/JJ	.	.	.	.	16d/JJ	.	.	.	.	.	.	.	.	.	.	.	.
*	*	*	*	*custos:f	*	*	*	*	*	*	*	*	*	*	*	*	*	*	*	*	*	*	*
!	!	!	!	!LO:PB:g=original	!	!	!	!	!	!	!	!	!	!	!	!	!	!	!	!	!	!	!
=12	=12	=12	=12	=12	=12	=12	=12	=12	=12	=12	=12	=12	=12	=12	=12	=12	=12	=12	=12	=12	=12	=12	=12
!	!	!	!	!	!	!	!	!	!	!	!	!	!	!	!LO:DY:a:color=red	!	!	!LO:TX:t=P:problem:mixed beam	!LO:DY:rj:color=red	!	!	!	!
4E-\	.	4G/	.	8e-'/L	.	4e-/	.	.	.	.	4e-/	-rint	.	4E-/	p	4e-\	.	8CC/L	p	.	.	.	.
.	.	.	.	(32e-/LL	.	.	.	.	.	.	.	.	.	.	.	.	.	(32E-\LL	.	.	.	.	.
.	.	.	.	32d/	.	.	.	.	.	.	.	.	.	.	.	.	.	32D\	.	.	.	.	.
.	.	.	.	32e-/	.	.	.	.	.	.	.	.	.	.	.	.	.	32E-\	.	.	.	.	.
.	.	.	.	32f/JJJ)	.	.	.	.	.	.	.	.	.	.	.	.	.	32F\JJJ)	.	.	.	.	.
4r	.	4r	.	8e-'/L	.	4r	.	.	.	.	4r	.	.	8E-/L	.	8e-'\L	.	8E-'\L	.	.	.	.	.
.	.	.	.	8e-'/	.	.	.	.	.	.	.	.	.	8E-/	.	8e-'\	.	8E-'\	.	.	.	.	.
4r	.	4r	.	8e-'/	.	4r	.	.	.	.	4r	.	.	8E-/	.	8e-'\	.	8E-'\	.	.	.	.	.
.	.	.	.	8e-'/J	.	.	.	.	.	.	.	.	.	8E-/J	.	8e-'\J	.	8E-'\J	.	.	.	.	.
!	!	!	!	!	!	!	!	!	!	!	!	!	!	!	!	!LO:LB:g=original	!	!LO:LB:g=original	!	!LO:LB:g=original	!	!	!
=13	=13	=13	=13	=13	=13	=13	=13	=13	=13	=13	=13	=13	=13	=13	=13	=13	=13	=13	=13	=13	=13	=13	=13
*	*	*	*	*	*	*	*	*	*	*	*	*	*	*	*	*	*	*2\right	*	*	*	*	*
*2\right	*	*2\right	*	*	*	*	*	*2\right	*	*	*	*	*	*	*	*2\right	*	*tremolo	*	*2\right	*	*2\right	*
!	!LO:DY:a:color=red	!	!LO:DY:rj:color=red	!	!LO:DY:a:t=f&colon;:color=red	!	!LO:DY:color=red	!	!	!LO:DY:a:color=red	!LO:TX:a:t=2	!	!	!	!LO:DY:a:color=red	!	!LO:DY:a:t=f&colon;:color=red	!LO:TX:a:t=......	!LO:DY:color=red	!	!LO:DY:rj:color=red	!	!LO:DY:color=red
2E-\	f	(2c\	f	8e-'/L	f	(2a-/	f	(2a-\	a-	f	1.r	.	.	2.E-/	f	2.e-\	f	8E-'\L	f	(2cc\	f	(2aa-\	f
.	.	.	.	8e-'/	.	.	.	.	.	.	.	.	.	.	.	.	.	8E-'\	.	.	.	.	.
.	.	.	.	8e-'/	.	.	.	.	.	.	.	.	.	.	.	.	.	8E-'\	.	.	.	.	.
!	!	!	!	!	!	!	!	!	!	!	!	!	!	!	!	!	!	!	!LO:DY:color=red	!	!	!	!
.	.	.	.	8e-'/	.	.	.	.	.	.	.	.	.	.	.	.	.	8E-'\	p	.	.	.	.
4E-\	.	4B-/)	.	8e-'/	.	4g/)	.	4g\)	.	.	.	.	.	.	.	.	.	8E-'\	.	4b-\)	.	4gg\)	.
.	.	.	.	8e-'/J	.	.	.	.	.	.	.	.	.	.	.	.	.	8E-'\J	.	.	.	.	.
*	*	*	*	*	*	*	*	*	*	*	*	*	*	*	*	*	*	*Xtremolo	*	*	*	*	*
!	!	!	!	!	!	!	!	!	!	!	!	!	!	!	!	!	!	!	!	!	!	!LO:LB:g=original	!
=14	=14	=14	=14	=14	=14	=14	=14	=14	=14	=14	=14	=14	=14	=14	=14	=14	=14	=14	=14	=14	=14	=14	=14
!	!LO:DY:a:color=red	!	!LO:DY:rj:color=red	!	!LO:DY:a:t=p&colon;:color=red	!	!LO:DY:color=red	!	!	!LO:DY:a:color=red	!	!	!	!	!LO:DY:a:color=red	!	!LO:DY:a::t=p.:color=red	!	!	!	!LO:DY:color=red	!	!LO:DY:rj:color=red
4E-\	p	4A-/	p	8e-'/L	p	4f/	p	4f/	-mor	p	.	.	.	8E-/L	p	8e-'\L	p	8E-\L	.	4a-/	p	4ff\	p
.	.	.	.	(32e-/LL	.	.	.	.	.	.	.	.	.	16E-/L	.	16e-'\L	.	(32E-\LL	.	.	.	.	.
.	.	.	.	32d/	.	.	.	.	.	.	.	.	.	.	.	.	.	32D\	.	.	.	.	.
.	.	.	.	32e-/	.	.	.	.	.	.	.	.	.	16E-/JJ	.	16e-'\JJ	.	32E-\	.	.	.	.	.
.	.	.	.	32f/JJJ)	.	.	.	.	.	.	.	.	.	.	.	.	.	32F\JJJ)	.	.	.	.	.
*	*	*	*	*	*	*	*	*	*	*	*	*	*	*tremolo	*	*tremolo	*	*tremolo	*	*	*	*	*
!	!	!	!	!	!	!	!	!	!	!	!	!	!	!	!	!	!	!LO:TX:a:t=....	!	!	!	!	!
4r	.	4r	.	8e-'/L	.	4r	.	4r	.	.	.	.	.	8E-/L	.	8e-\L	.	8E-'\L	.	4r	.	4r	.
.	.	.	.	8e-'/	.	.	.	.	.	.	.	.	.	8E-/	.	8e-\	.	8E-'\	.	.	.	.	.
!	!	!	!	!	!	!LO:TX:b:i:t=Volti ./.	!	!	!	!	!	!	!	!	!	!	!	!	!	!	!	!	!
4r	.	4r	.	8e-'/	.	4r	.	4r	.	.	.	.	.	8E-/	.	8e-\	.	8E-'\	.	4r	.	4r	.
.	.	.	.	8e-'/J	.	.	.	.	.	.	.	.	.	8E-/J	.	8e-\J	.	8E-'\J	.	.	.	.	.
*	*	*	*	*	*	*custos:b	*	*	*	*	*	*	*	*Xtremolo	*	*Xtremolo	*	*	*	*	*	*	*
!	!	!	!	!	!	!LO:LB:g=original	!	!	!	!	!	!	!	!	!	!	!	!	!	!	!	!	!
=15	=15	=15	=15	=15	=15	=15	=15	=15	=15	=15	=15	=15	=15	=15	=15	=15	=15	=15	=15	=15	=15	=15	=15
*	*	*	*	*tremolo	*	*	*	*	*	*	*	*	*	*	*	*	*	*	*	*	*	*	*
!	!LO:DY:a:color=red	!	!LO:DY:color=red	!LO:TX:b:t=......	!LO:DY:a:t=f&colon;:color=red	!	!LO:DY:color=red	!	!	!LO:DY:a:color=red	!	!	!LO:DY:a:color=red	!	!LO:DY:a:color=red	!	!LO:DY:a:t=f&colon;:color=red	!LO:TX:a:t=......	!LO:DY:color=red	!	!LO:DY:rj:color=red	!	!LO:DY:color=red
2E-\	f	(2g\	f	8e-'/L	f	(2b-/	f	(2b-\	tu-	f	(2g/	tu-	f	2.E-/	f	2.e-\	f	8E-'\L	f	(2gg\	f	(2bb-\	f
.	.	.	.	8e-'/	.	.	.	.	.	.	.	.	.	.	.	.	.	8E-'\	.	.	.	.	.
.	.	.	.	8e-'/	.	.	.	.	.	.	.	.	.	.	.	.	.	8E-'\	.	.	.	.	.
!	!	!	!	!	!	!	!	!	!	!	!	!	!	!	!	!	!	!	!LO:DY:color=red	!	!	!	!
.	.	.	.	8e-'/	.	.	.	.	.	.	.	.	.	.	.	.	.	8E-'\	p	.	.	.	.
!	!	!	!	!	!	!	!	!	!	!	!	!	!LO:DY:a:color=red	!	!	!	!	!	!	!	!	!	!
4E-\	.	4f\)	.	8e-'/	.	4a-/)	.	4a-\)	.	.	4f/)	.	p	.	.	.	.	8E-'\	.	4ff\)	.	4aa-\)	.
.	.	.	.	8e-'/J	.	.	.	.	.	.	.	.	.	.	.	.	.	8E-'\J	.	.	.	.	.
*	*	*	*	*Xtremolo	*	*	*	*	*	*	*	*	*	*	*	*	*	*Xtremolo	*	*	*	*	*
!	!	!	!	!	!	!	!	!	!	!	!	!	!	!LO:LB:g=original	!	!	!	!	!	!	!	!	!
=16	=16	=16	=16	=16	=16	=16	=16	=16	=16	=16	=16	=16	=16	=16	=16	=16	=16	=16	=16	=16	=16	=16	=16
!	!LO:DY:a:color=red	!	!LO:DY:color=red	!	!LO:DY:a:t=p&colon;:color=red	!	!LO:DY:rj:color=red	!	!	!LO:DY:a:color=red	!	!	!	!	!LO:DY:a:color=red	!	!LO:DY:a:color=red	!	!	!	!LO:DY:color=red	!	!LO:DY:color=red
4E-\	p	4e-\	p	8e-'/L	p	4g/	p	4g\	-tus	p	4e-/	-tus	.	8E-/L	p	8e-'\L	p	8E-\L	.	4ee-\	p	4gg\	p
.	.	.	.	(32e-/LL	.	.	.	.	.	.	.	.	.	16E-/L	.	16e-'\L	.	(32E-\LL	.	.	.	.	.
.	.	.	.	32d/	.	.	.	.	.	.	.	.	.	.	.	.	.	32D\	.	.	.	.	.
.	.	.	.	32e-/	.	.	.	.	.	.	.	.	.	16E-/JJ	.	16e-'\JJ	.	32E-\	.	.	.	.	.
.	.	.	.	32f/JJJ)	.	.	.	.	.	.	.	.	.	.	.	.	.	32F\JJJ)	.	.	.	.	.
*	*	*	*	*	*	*	*	*	*	*	*	*	*	*tremolo	*	*tremolo	*	*	*	*	*	*	*
!	!	!	!	!	!	!	!	!	!	!	!	!	!	!LO:TX:b:t=....	!	!LO:TX:a:t=....	!	!	!	!	!	!	!
4r	.	4r	.	8e-'/L	.	4r	.	4r	.	.	4r	.	.	8E-'/L	.	8e-'\L	.	8E-'\L	.	4r	.	4r	.
.	.	.	.	8e-'/	.	.	.	.	.	.	.	.	.	8E-'/	.	8e-'\	.	8E-'\	.	.	.	.	.
4r	.	4r	.	8e-'/	.	4r	.	4r	.	.	4r	.	.	8E-'/	.	8e-'\	.	8E-'\	.	4r	.	4r	.
.	.	.	.	8e-'/J	.	.	.	.	.	.	.	.	.	8E-'/J	.	8e-'\J	.	8E-'\J	.	.	.	.	.
*	*	*	*	*	*	*	*	*	*	*	*	*	*	*Xtremolo	*	*Xtremolo	*	*	*	*	*	*	*
=17	=17	=17	=17	=17	=17	=17	=17	=17	=17	=17	=17	=17	=17	=17	=17	=17	=17	=17	=17	=17	=17	=17	=17
*	*	*	*	*tremolo	*	*2\right	*	*	*	*	*2\right	*	*	*	*	*	*	*	*	*	*	*	*
!	!LO:DY:a:color=red	!	!LO:DY:color=red	!LO:TX:b:t=......	!LO:DY:a:t=f&colon;:color=red	!	!LO:DY:rj:color=red	!	!	!LO:DY:a:color=red	!	!	!LO:DY:a:color=red	!	!LO:DY:a:color=red	!	!LO:DY:a:t=f&colon;:color=red	!	!LO:DY:color=red	!LO:TX:a:t=2	!	!LO:TX:a:t=2	!
2E-\	f	(2cc\	f	8e-'/L	f	2ee-\	f	2ee-\	im-	f	2cc\	im-	f	2.E-/	f	2.e-\	f	(2E-\	f	1.r	.	1.r	.
.	.	.	.	8e-'/	.	.	.	.	.	.	.	.	.	.	.	.	.	.	.	.	.	.	.
.	.	.	.	8e-'/	.	.	.	.	.	.	.	.	.	.	.	.	.	.	.	.	.	.	.
.	.	.	.	8e-'/	.	.	.	.	.	.	.	.	.	.	.	.	.	.	.	.	.	.	.
4r	.	4b-\)	.	8e-'/	.	4dd\	.	4dd\	-po-	.	4b-\	-po-	.	.	.	.	.	4D\)	.	.	.	.	.
.	.	.	.	8e-'/J	.	.	.	.	.	.	.	.	.	.	.	.	.	.	.	.	.	.	.
!LO:LB:g=original	!	!	!	!LO:LB:g=original	!	!	!	!	!	!	!	!	!	!	!	!	!	!	!	!	!	!	!
=18	=18	=18	=18	=18	=18	=18	=18	=18	=18	=18	=18	=18	=18	=18	=18	=18	=18	=18	=18	=18	=18	=18	=18
!	!	!	!LO:DY:color=red	!	!LO:DY:a:t=p&colon;:color=red	!	!LO:DY:rj:color=red	!	!	!LO:DY:a:color=red	!	!	!LO:DY:a:color=red	!LO:TX:a:t=2	!	!LO:TX:a:t=2	!	!	!LO:DY:t=p.:color=red	!	!	!	!
4r	.	4a-\	p	8e-/L	p	4cc\	p	(4cc\	-lu-	p	(4a-\	-lu-	p	1.r	.	1.r	.	4C/	p	.	.	.	.
.	.	.	.	8e-/	.	.	.	.	.	.	.	.	.	.	.	.	.	.	.	.	.	.	.
4r	.	4g\	.	8e-/	.	4b-\	.	4b-\	.	.	4g\	.	.	.	.	.	.	4BB-/	.	.	.	.	.
!	!LO:DY:color=red	!	!	!	!	!	!	!	!	!	!	!	!	!	!	!	!	!	!	!	!	!	!
.	p	.	.	8e-/	.	.	.	.	.	.	.	.	.	.	.	.	.	.	.	.	.	.	.
4BB-/	.	4f\	.	8e-/	.	4a-\	.	4a-\)	.	.	4f\)	.	.	.	.	.	.	4AA-/	.	.	.	.	.
.	.	.	.	8e-/J	.	.	.	.	.	.	.	.	.	.	.	.	.	.	.	.	.	.	.
=19	=19	=19	=19	=19	=19	=19	=19	=19	=19	=19	=19	=19	=19	=19	=19	=19	=19	=19	=19	=19	=19	=19	=19
*	*	*	*	*2\right	*	*	*	*	*	*	*	*	*	*	*	*	*	*	*	*	*	*	*
4E-\	.	4e-\	.	8b-\L	.	4g/	.	4g\	-tus	.	4e-/	-tus	.	.	.	.	.	4GG/	.	4r	.	4r	.
.	.	.	.	8b-\	.	.	.	.	.	.	.	.	.	.	.	.	.	.	.	.	.	.	.
4BB-/	.	4d\	.	8b-\	.	4f/	.	4f\	De-	.	4d/	de-	.	.	.	.	.	4FF/	.	4r	.	4r	.
.	.	.	.	8b-\	.	.	.	.	.	.	.	.	.	.	.	.	.	.	.	.	.	.	.
!	!	!	!	!	!	!	!	!	!	!	!	!	!	!	!	!	!	!	!	!	!LO:DY:color=red	!	!LO:DY:color=red
4D\	.	4f\	.	8b-\	.	4a-/	.	4a-\	-o	.	4f/	-o	.	.	.	.	.	4AA-/	.	4ff\	p	4aa-\	p
.	.	.	.	8b-\J	.	.	.	.	.	.	.	.	.	.	.	.	.	.	.	.	.	.	.
=20	=20	=20	=20	=20	=20	=20	=20	=20	=20	=20	=20	=20	=20	=20	=20	=20	=20	=20	=20	=20	=20	=20	=20
!	!	!	!	!	!	!	!	!	!	!	!	!	!	!	!LO:DY:color=red	!	!LO:DY::color=red	!	!	!	!	!	!
4E-\	.	4e-\	.	8b-\L	.	4g/	.	(4g\	dum	.	(4e-/	dum	.	4e-\	p	4g\	p	4GG/	.	4ee-\	.	4gg\	.
.	.	.	.	8b-\	.	.	.	.	.	.	.	.	.	.	.	.	.	.	.	.	.	.	.
4BB-/	.	4d\	.	8b-\	.	4f/	.	4f\)	.	.	4d/)	.	.	4B-/	.	4f\	.	4FF/	.	4dd\	.	4ff\	.
.	.	.	.	8b-\	.	.	.	.	.	.	.	.	.	.	.	.	.	.	.	.	.	.	.
4D\	.	4f\	.	8b-\	.	4a-/	.	4a-\	cor	.	4f/	cor	.	4r	.	4r	.	4AA-/	.	4ff\	.	4aa-\	.
.	.	.	.	8b-\J	.	.	.	.	.	.	.	.	.	.	.	.	.	.	.	.	.	.	.
*	*	*	*	*Xtremolo	*	*	*	*	*	*	*	*	*	*	*	*	*	*	*	*	*	*	*
!	!	!LO:LB:g=original	!	!	!	!	!	!LO:LB:g=original	!	!	!LO:LB:g=original	!	!	!	!	!	!	!	!	!	!	!	!
=21	=21	=21	=21	=21	=21	=21	=21	=21	=21	=21	=21	=21	=21	=21	=21	=21	=21	=21	=21	=21	=21	=21	=21
4E-\	.	4e-\	.	4dd\	.	4g/	.	8g\	jun-	.	8e-/	jun-	.	4e-\	.	4g\	.	4GG/	.	4ee-\	.	4gg\	.
.	.	.	.	.	.	.	.	8g\	-gi-	.	8e-/	-gi-	.	.	.	.	.	.	.	.	.	.	.
4BB-/	.	4d\	.	4dd\	.	4f/	.	4f\	-tur	.	4d/	-tur	.	4B-/	.	4f\	.	4EE-/	.	4dd\	.	4ff\	.
8r;	.	8r;	.	8r;	.	8r;	.	8r;	.	.	8r;	.	.	8r;	.	8r;	.	8r;	.	8r;	.	8r;	.
!	!	!	!	!	!	!	!LO:DY:rj:t=fort:color=red	!	!	!	!	!	!	!	!	!	!	!	!	!	!	!	!
8r	.	8r	.	8r	.	8B-/	f	8r	.	.	8r	.	.	8r	.	8r	.	8r	.	8r	.	8r	.
=22	=22	=22	=22	=22	=22	=22	=22	=22	=22	=22	=22	=22	=22	=22	=22	=22	=22	=22	=22	=22	=22	=22	=22
!LO:TX:a:t=1	!	!LO:TX:a:t=1	!	!LO:TX:a:t=1	!	!	!	!LO:TX:a:t=1	!	!	!LO:TX:a:t=1	!	!	!LO:TX:a:t=1	!	!LO:TX:a:t=1	!	!LO:TX:a:t=1	!	!	!	!LO:TX:a:t=1	!
2.r	.	2.r	.	2.r	.	8d/L|	.	2.r	.	.	2.r	.	.	2.r	.	2.r	.	2.r	.	2.r	.	2.r	.
.	.	.	.	.	.	8f/|	.	.	.	.	.	.	.	.	.	.	.	.	.	.	.	.	.
.	.	.	.	.	.	8b-/|	.	.	.	.	.	.	.	.	.	.	.	.	.	.	.	.	.
.	.	.	.	.	.	8dd/J|	.	.	.	.	.	.	.	.	.	.	.	.	.	.	.	.	.
.	.	.	.	.	.	8ff\L|	.	.	.	.	.	.	.	.	.	.	.	.	.	.	.	.	.
.	.	.	.	.	.	8gg\J|	.	.	.	.	.	.	.	.	.	.	.	.	.	.	.	.	.
!	!	!	!	!	!	!LO:LB:g=original	!	!	!	!	!	!	!	!	!	!	!	!LO:LB:g=original	!	!	!	!	!
=23	=23	=23	=23	=23	=23	=23	=23	=23	=23	=23	=23	=23	=23	=23	=23	=23	=23	=23	=23	=23	=23	=23	=23
!	!	!	!	!	!LO:DY:b:rj:t=f&colon;:color=red	!	!	!	!	!	!	!	!	!	!	!	!LO:DY:a:t=f&colon;:color=red	!	!	!	!	!	!
4r	.	4r	.	4ff\	f	4aa-\	.	4r	.	.	4r	.	.	4r	.	4r	f	4r	.	4r	.	4r	.
!	!LO:DY:color=red	!	!LO:DY:color=red	!	!	!	!	!	!	!LO:DY:a:color=red	!	!	!LO:DY:aLO:DY:a:color=red	!	!LO:DY:color=red	!	!	!	!LO:DY:color=red	!	!LO:DY:color=red	!	!LO:DY:color=red
4BB-/	f	4b-\	f	4a-/	.	4dd\	.	4a-\	dum	f	4dd\	dum	f	4B-/	f	4f\	.	4BB-/	f	4ff\	f	4aa-\	f
4E-\	.	4cc\	.	4g/	.	4ee-\	.	4g\	cor	.	4ee-\	cor	.	4e-\	.	4g\	.	4E-\	.	4ee-\	.	4gg\	.
!	!	!	!	!	!	!	!	!	!	!	!	!	!	!	!	!LO:LB:g=original	!	!	!	!LO:LB:g=original	!	!	!
=24	=24	=24	=24	=24	=24	=24	=24	=24	=24	=24	=24	=24	=24	=24	=24	=24	=24	=24	=24	=24	=24	=24	=24
.	.	.	.	.	.	8qqdd/	.	.	.	.	16qqdd/	.	.	.	.	.	.	.	.	.	.	.	.
!	!	!	!	!	!	!LO:TUP:a:problem:klamra łukowa, kropka zamiast numeru	!	!LO:TUP:a:problem:klamra łukowa	!	!	!LO:TUP:a:problem:klamra łukowa	!	!	!	!	!	!	!	!	!	!	!	!
4A-\	.	4cc\	.	8a-/L	.	12cc\L	.	12a-\L	jun-	.	12cc\L	jun-	.	4B-/	.	4f\	.	4A-\	.	4a-/	.	4ff\	.
.	.	.	.	.	.	12b-\	.	12g\	.	.	12b-\	.	.	.	.	.	.	.	.	.	.	.	.
.	.	.	.	8g/	.	.	.	.	.	.	.	.	.	.	.	.	.	.	.	.	.	.	.
.	.	.	.	.	.	12a-\J	.	12f\J	.	.	12a-\J	.	.	.	.	.	.	.	.	.	.	.	.
4B-\	.	4b-\	.	8f/J	.	4g/	.	4e-/	.	.	4g/	.	.	4G/	.	4e-\	.	4B-\	.	4g/	.	4ee-\	.
.	.	.	.	4e-/	.	.	.	.	.	.	.	.	.	.	.	.	.	.	.	.	.	.	.
4BB-/	.	4b-\	.	.	.	4f/	.	4d/	-gi-	.	4f/	-gi-	.	4B-/	.	4f\	.	4BB-/	.	4f/	.	4dd\	.
.	.	.	.	8d/	.	.	.	.	.	.	.	.	.	.	.	.	.	.	.	.	.	.	.
!	!	!	!	!	!	!	!	!	!	!	!	!	!	!	!	!	!	!	!	!	!	!LO:LB:g=original	!
=25	=25	=25	=25	=25	=25	=25	=25	=25	=25	=25	=25	=25	=25	=25	=25	=25	=25	=25	=25	=25	=25	=25	=25
4E-\	.	8B-/	.	8.G/L	.	8.e-/L	.	4e-/	-tur.	.	4e-/	-tur.	.	8.G/L	.	8.e-\L	.	8.E-\L	.	8.g/L	.	8.ee-\L	.
.	.	4B-/	.	.	.	.	.	.	.	.	.	.	.	.	.	.	.	.	.	.	.	.	.
.	.	.	.	16A-/K	.	16d/K	.	.	.	.	.	.	.	16B-/K	.	16f\K	.	16D\K	.	16f/K	.	16dd\K	.
4E-\	.	.	.	8.G/	.	8.e-/	.	4r	.	.	4r	.	.	8.G/	.	8.e-\	.	8.E-\	.	8.g/	.	8.ee-\	.
.	.	4B-/	.	.	.	.	.	.	.	.	.	.	.	.	.	.	.	.	.	.	.	.	.
.	.	.	.	16A-/K	.	16d/K	.	.	.	.	.	.	.	16B-/K	.	16f\K	.	16D\K	.	16f/K	.	16dd\K	.
4E-\	.	.	.	8.G/	.	8.e-/	.	4r	.	.	4r	.	.	8.G/	.	8.e-\	.	8.E-\	.	8.g/	.	8.ee-\	.
.	.	8B-/	.	.	.	.	.	.	.	.	.	.	.	.	.	.	.	.	.	.	.	.	.
.	.	.	.	16A-/Jk	.	16d/Jk	.	.	.	.	.	.	.	16B-/Jk	.	16f\Jk	.	16D\Jk	.	16f/Jk	.	16dd\Jk	.
!LO:LB:g=original	!	!	!	!LO:LB:g=original	!	!	!	!	!	!	!	!	!	!	!	!	!	!	!	!	!	!	!
=26	=26	=26	=26	=26	=26	=26	=26	=26	=26	=26	=26	=26	=26	=26	=26	=26	=26	=26	=26	=26	=26	=26	=26
!	!	!	!	!	!	!	!	!LO:TX:a:t=2	!	!	!LO:TX:a:t=2	!	!	!	!	!	!	!	!	!	!	!	!
4E-\	.	4B-/	.	4G/	.	4e-/	.	1.r	.	.	1.r	.	.	4G/	.	4e-\	.	4E-\	.	4g/	.	4ee-\	.
4E-\	.	4B-/	.	4G/	.	4e-/	.	.	.	.	.	.	.	4G/	.	4e-\	.	4E-\	.	4g/	.	4ee-\	.
4E-\	.	4B-/	.	4G/	.	4e-/	.	.	.	.	.	.	.	4G/	.	4e-\	.	4E-\	.	4g/	.	4ee-\	.
=27	=27	=27	=27	=27	=27	=27	=27	=27	=27	=27	=27	=27	=27	=27	=27	=27	=27	=27	=27	=27	=27	=27	=27
2E-\	.	2B-/	.	2G/	.	2e-/	.	.	.	.	.	.	.	2G/	.	2e-\	.	2E-\	.	2g/	.	2ee-\	.
!	!	!LO:TX:b:t=fine	!	!LO:TX:b:t=Il Finis.	!	!LO:TX:b:t=Finis.	!	!	!	!	!	!	!	!	!	!LO:TX:b:t=Il Finis&colon;	!	!	!	!	!	!	!
4r	.	4r	.	4r	.	4r	.	.	.	.	.	.	.	4r	.	4r	.	4r	.	4r	.	4r	.
==	==	==	==	==	==	==	==	==	==	==	==	==	==	==	==	==	==	==	==	==	==	==	==
*-	*-	*-	*-	*-	*-	*-	*-	*-	*-	*-	*-	*-	*-	*-	*-	*-	*-	*-	*-	*-	*-	*-	*-
!!!system-decoration: [(g1)][(g2)][(g3)][(g4)]
!!!RDF**kern: | = vertical stroke
!!!ENC: Tomasz Grochalski
!!!END: 2020-11-06
!!!ENC: Marta Lawrence
!!!END: 2022-04-16
